X: 1
T: Maddy and Karine's Wedding
C: Aidan O'Rourke
R: jig
Z: 2015 John Chambers <jc:trillian.mit.edu>
S: printed page 22.08 from the Strathspey & Reel Society of New Hampshire
M: 6/8
L: 1/8
K: G
|:\
"G"GAB d2g- | g2g fed |\
"C"c2e edB | "D"BAG AFD |\
"G"GAB dgd | gga fed |
"C"c2e edB | "D"BAG AF/E/D ::\
"C"CEG "D"F2D | "C"CEG "D"F2G- |\
"Em"GFG "D"F2D | "C"CEG "D"FDB, |
"C"CEG "D"F2D | "C"CEG "D"F2G- |\
"Em"GFG "D"F2D | "C"CEG "D"DED ::\
"G"Gdd Gd"D"F- | F2d dFD |
"C"E2c cGE | "D"FFGA DFA |\
"G"Gdd Gd"D"F- | F2d dFD |\
"C"E2c cGE | "D"FED- DFA :|
